X:32
T: Winterrosen
N: Q0145J
O: Mitteleuropa, Deutschland (BRD) , Westfalen
N: Refrain auf sinnfreie Silben in der dritten Zeile.
R: Ballade, Verfuehrung, verlorene Ehre
M: 2/4
L: 1/16
K: G
D2 | D2G2G2G2 | G4A2A2 | _B2=F2F2FG | G4
G2A2 | _B4=F4 | _E2G2=F4 | D8 | _B,6z2
G4G2D2 | G6z2 | G4A2G2A2 | _B4
B2d2 | c4_B4 | A4G4 | D8 | G6

